X: 1759
T: The Old Camp
C:Bob Rummery
B: australian traditional tunes wiki
M:6/8
L:1/8
R: Jig
Q: 3/8=100
K:G
V:1 
|:"G"G2B BAG|d3d3|G2B BAG|d3g2f|"C"e2e edc|"G"d2d dcB|1"D"dede2d|A3-A3:|2"D"cdcB2A|"G"G3B2G||
|:"D"ABAF2D|"G"B2B GBd|"C"e2e dcB|"D"A3-A2A|ABAF2D|"G"B2B GBd|"C"edc "D"BcA|1"G"G3B2G:|2"G"G3-G||
% abcbook-tune_id 6342d53a5b9797f03dc7c65b


% abcbook-boost 0
% abcbook-tablature 
% abcbook-transpose 
% abcbook-lastupdated 1665324382134
% abcbook-soundfonts 
% abcbook-repeats 1
% NFF Book 2016

